X:866
T:Strathbogie Toast, The
T:Bobers of Brechin, The
T:Willafjord
R:Reel
C:William Marshal
B:The Athole Collection
M:C|
L:1/8
K:G Minor
g|dgg^f g2d=f|cdfg dfcf|dgg^f g2dg|fdcA G2 GA|Ggg^f g2 d=f|
cdfg afcf|d^fga bag=f|dfcA G2G||
d|BGdG BGd=e|fdcf AFcA|BGdG BGdg|fdcA G2 Gd|
BGdG BGd=e|fdcf AFcA|GABc d=efg|fdcA G2G||

